images/icon-tel.svg

<svg width="20" height="20" viewBox="0 0 20 20" fill="none" xmlns="http://www.w3.org/2000/svg">
<g id="telephone-call (2) 1">
<path id="Vector" d="M18.3706 14.6C17.8244 14.1419 14.6206 12.1131 14.0881 12.2063C13.8381 12.2506 13.6469 12.4638 13.135 13.0744C12.8983 13.3749 12.6383 13.6564 12.3575 13.9163C11.843 13.792 11.345 13.6074 10.8738 13.3663C9.0258 12.4666 7.53289 10.9732 6.63375 9.125C6.39265 8.65379 6.20804 8.15576 6.08375 7.64125C6.34358 7.36044 6.62507 7.10047 6.92563 6.86375C7.53562 6.35188 7.74938 6.16187 7.79375 5.91062C7.88688 5.37687 5.85625 2.17437 5.4 1.62813C5.20875 1.40188 5.035 1.25 4.8125 1.25C4.1675 1.25 1.25 4.8575 1.25 5.325C1.25 5.36313 1.3125 9.11875 6.05562 13.9444C10.8813 18.6875 14.6369 18.75 14.675 18.75C15.1425 18.75 18.75 15.8325 18.75 15.1875C18.75 14.965 18.5981 14.7913 18.3706 14.6Z" fill="#1E8E31"/>
<path id="Vector_2" d="M14.375 9.375H15.625C15.6235 8.04937 15.0962 6.77847 14.1589 5.84111C13.2215 4.90375 11.9506 4.37649 10.625 4.375V5.625C11.6193 5.62599 12.5725 6.0214 13.2756 6.72445C13.9786 7.42749 14.374 8.38074 14.375 9.375Z" fill="#1E8E31"/>
<path id="Vector_3" d="M17.5 9.375H18.75C18.7475 7.22088 17.8907 5.15569 16.3675 3.6325C14.8443 2.1093 12.7791 1.25248 10.625 1.25V2.5C12.4477 2.50215 14.1951 3.22717 15.484 4.51602C16.7728 5.80486 17.4978 7.5523 17.5 9.375Z" fill="#1E8E31"/>
</g>
</svg>

<svg xmlns="http://www.w3.org/2000/svg" width="20" height="20" fill="none"><g fill="#1E8E31"><path d="M18.37 14.6c-.546-.458-3.75-2.487-4.282-2.394-.25.045-.441.258-.953.868-.237.3-.497.582-.777.842a6.723 6.723 0 0 1-1.484-.55 9.188 9.188 0 0 1-4.24-4.241 6.723 6.723 0 0 1-.55-1.484c.26-.28.541-.54.842-.777.61-.512.823-.702.868-.953.093-.534-1.938-3.737-2.394-4.283-.191-.226-.365-.378-.588-.378-.644 0-3.562 3.607-3.562 4.075 0 .038.063 3.794 4.806 8.62 4.825 4.742 8.58 4.805 8.619 4.805.467 0 4.075-2.918 4.075-3.563 0-.222-.152-.396-.38-.587ZM14.375 9.375h1.25a5.006 5.006 0 0 0-5-5v1.25a3.754 3.754 0 0 1 3.75 3.75Z"/><path d="M17.5 9.375h1.25a8.134 8.134 0 0 0-8.125-8.125V2.5A6.883 6.883 0 0 1 17.5 9.375Z"/></g></svg>
